src/assets/images/map/markers/not_found/icon_80.svg

<?xml version="1.0" encoding="UTF-8" standalone="no"?>
<svg
   xmlns:dc="http://purl.org/dc/elements/1.1/"
   xmlns:cc="http://creativecommons.org/ns#"
   xmlns:rdf="http://www.w3.org/1999/02/22-rdf-syntax-ns#"
   xmlns:svg="http://www.w3.org/2000/svg"
   xmlns="http://www.w3.org/2000/svg"
   xmlns:sodipodi="http://sodipodi.sourceforge.net/DTD/sodipodi-0.dtd"
   xmlns:inkscape="http://www.inkscape.org/namespaces/inkscape"
   width="128pt"
   height="74pt"
   viewBox="0 0 128 74"
   version="1.1"
   id="svg5"
   sodipodi:docname="icon_80.svg"
   inkscape:version="0.92.1 r15371">
  <metadata
     id="metadata11">
    <rdf:RDF>
      <cc:Work
         rdf:about="">
        <dc:format>image/svg+xml</dc:format>
        <dc:type
           rdf:resource="http://purl.org/dc/dcmitype/StillImage" />
      </cc:Work>
    </rdf:RDF>
  </metadata>
  <defs
     id="defs9" />
  <sodipodi:namedview
     pagecolor="#ffffff"
     bordercolor="#666666"
     borderopacity="1"
     objecttolerance="10"
     gridtolerance="10"
     guidetolerance="10"
     inkscape:pageopacity="0"
     inkscape:pageshadow="2"
     inkscape:window-width="836"
     inkscape:window-height="480"
     id="namedview7"
     showgrid="false"
     inkscape:zoom="2.1328125"
     inkscape:cx="85.333333"
     inkscape:cy="49.333333"
     inkscape:window-x="0"
     inkscape:window-y="0"
     inkscape:window-maximized="0"
     inkscape:current-layer="surface1" />
  <g
     id="surface1">
    <path
       style="fill:#00ff00;fill-opacity:1;fill-rule:nonzero;stroke:none"
       d="m 104.89453,12.882812 c -2.19531,0 -4.39453,1.796876 -6.589842,5.390626 -6.191407,-3.59375 -13.78125,-6.390626 -22.769532,-8.386719 L 52.164062,6.589844 c -9.585937,0 -18.074218,1.898437 -25.464843,5.695312 -7.1875,3.992188 -11.78125,8.984375 -13.78125,14.976563 -3.992188,1 -5.992188,2.796875 -5.992188,5.394531 0,2.394531 2,4.195312 5.992188,5.390625 2.597656,7.390625 8.890625,12.984375 18.875,16.777344 l 2.996093,6.292969 2.097657,4.792968 3.296875,1.199219 h 26.0625 c 1.398437,0 2.695312,-0.699219 3.894531,-2.097656 l 1.5,-3.894531 V 56.625 C 82.625,54.425781 91.8125,51.332031 99.203125,47.335938 c 1.597655,2.597656 3.496095,3.894531 5.691405,3.894531 h 0.59766 c 4.59375,-0.199219 9.1875,-2.597657 13.78125,-7.191407 -3.59375,-0.199218 -7.08985,-1.796874 -10.48438,-4.792968 l 1.5,-3.292969 c 7.1875,-0.203125 10.78516,-1.300781 10.78516,-3.296875 0,-1.996094 -3.69531,-3.195312 -11.08594,-3.59375 l -2.09765,-3.296875 7.48828,-4.792969 3.89453,-0.601562 c -4.59375,-4.59375 -9.1875,-7.089844 -13.78125,-7.488282 h -0.59766 m 13.1836,-2.398437 5.99218,4.796875 c 1.9961,2.195312 2.4961,4.691406 1.4961,7.488281 l -1.79688,2.695313 c 2.79688,1.597656 4.19531,3.996094 4.19531,7.191406 0,2.796875 -1.19921,5.09375 -3.59765,6.890625 l 1.19922,2.097656 c 1,2.796875 0.5,5.191407 -1.4961,7.191407 -5.79297,5.589843 -11.88672,8.6875 -18.27734,9.285156 h -0.89844 c -2.59765,0 -4.992186,-0.796875 -7.191405,-2.394532 l -18.875,5.988282 C 78.628906,65.3125 77.230469,68.308594 74.636719,70.703125 72.238281,72.902344 69.441406,74 66.246094,74 h -26.0625 c -3.597656,0 -6.394532,-1.199219 -8.390625,-3.59375 l -3.59375,-6.59375 -1.5,-3.894531 C 17.511719,56.125 11.023438,50.632812 7.226562,43.441406 2.433594,40.84375 0.0351562,37.25 0.0351562,32.65625 c 0,-4.792969 2.3984378,-8.390625 7.1914058,-10.785156 C 10.820312,15.078125 16.613281,9.6875 24.601562,5.691406 32.792969,1.898438 41.980469,0 52.164062,0 l 22.171876,2.398438 c 8.1875,1.796874 15.578124,4.191406 22.171874,7.1875 2.394532,-2.394532 5.191408,-3.59375 8.386718,-3.59375 h 0.89844 c 4.19531,0.398437 8.28906,1.898437 12.28516,4.492187"
       id="path2"
       inkscape:connector-curvature="0" />
  </g>
</svg>

<?xml version="1.0" encoding="UTF-8"?>
<svg xmlns="http://www.w3.org/2000/svg" xmlns:xlink="http://www.w3.org/1999/xlink" width="128pt" height="74pt" viewBox="0 0 128 74" version="1.1">
<g id="surface1">
<path style=" stroke:none;fill-rule:nonzero;fill:rgb(100%,100%,100%);fill-opacity:1;" d="M 104.894531 12.882812 C 102.699219 12.882812 100.5 14.679688 98.304688 18.273438 C 92.113281 14.679688 84.523438 11.882812 75.535156 9.886719 L 52.164062 6.589844 C 42.578125 6.589844 34.089844 8.488281 26.699219 12.285156 C 19.511719 16.277344 14.917969 21.269531 12.917969 27.261719 C 8.925781 28.261719 6.925781 30.058594 6.925781 32.65625 C 6.925781 35.050781 8.925781 36.851562 12.917969 38.046875 C 15.515625 45.4375 21.808594 51.03125 31.792969 54.824219 L 34.789062 61.117188 L 36.886719 65.910156 L 40.183594 67.109375 L 66.246094 67.109375 C 67.644531 67.109375 68.941406 66.410156 70.140625 65.011719 L 71.640625 61.117188 L 71.640625 56.625 C 82.625 54.425781 91.8125 51.332031 99.203125 47.335938 C 100.800781 49.933594 102.699219 51.230469 104.894531 51.230469 L 105.492188 51.230469 C 110.085938 51.03125 114.679688 48.632812 119.273438 44.039062 C 115.679688 43.839844 112.183594 42.242188 108.789062 39.246094 L 110.289062 35.953125 C 117.476562 35.75 121.074219 34.652344 121.074219 32.65625 C 121.074219 30.660156 117.378906 29.460938 109.988281 29.0625 L 107.890625 25.765625 L 115.378906 20.972656 L 119.273438 20.371094 C 114.679688 15.777344 110.085938 13.28125 105.492188 12.882812 L 104.894531 12.882812 M 118.078125 10.484375 L 124.070312 15.28125 C 126.066406 17.476562 126.566406 19.972656 125.566406 22.769531 L 123.769531 25.464844 C 126.566406 27.0625 127.964844 29.460938 127.964844 32.65625 C 127.964844 35.453125 126.765625 37.75 124.367188 39.546875 L 125.566406 41.644531 C 126.566406 44.441406 126.066406 46.835938 124.070312 48.835938 C 118.277344 54.425781 112.183594 57.523438 105.792969 58.121094 L 104.894531 58.121094 C 102.296875 58.121094 99.902344 57.324219 97.703125 55.726562 L 78.828125 61.714844 C 78.628906 65.3125 77.230469 68.308594 74.636719 70.703125 C 72.238281 72.902344 69.441406 74 66.246094 74 L 40.183594 74 C 36.585938 74 33.789062 72.800781 31.792969 70.40625 L 28.199219 63.8125 L 26.699219 59.917969 C 17.511719 56.125 11.023438 50.632812 7.226562 43.441406 C 2.433594 40.84375 0.0351562 37.25 0.0351562 32.65625 C 0.0351562 27.863281 2.433594 24.265625 7.226562 21.871094 C 10.820312 15.078125 16.613281 9.6875 24.601562 5.691406 C 32.792969 1.898438 41.980469 0 52.164062 0 L 74.335938 2.398438 C 82.523438 4.195312 89.914062 6.589844 96.507812 9.585938 C 98.902344 7.191406 101.699219 5.992188 104.894531 5.992188 L 105.792969 5.992188 C 109.988281 6.390625 114.082031 7.890625 118.078125 10.484375 "/>
</g>
</svg>
